src/icons/wallets/metamask/icon.svg

<svg height="27pt" viewBox="0 0 29 27" width="29pt" xmlns="http://www.w3.org/2000/svg"><g stroke-linecap="round" stroke-linejoin="round" transform="scale(.11284 .112971)"><path d="m243.083782 1.486834-99.490571 73.926794 18.416487-43.602285zm0 0" fill="#e2761b" stroke="#e2761b"/><g fill="#e4761b" stroke="#e4761b"><path d="m13.396956 1.486834 98.694369 74.618345-17.481815-44.293836zm0 0"/><path d="m207.289332 172.783999-26.482355 40.628617 56.703395 15.594473 16.304822-55.324074zm0 0"/><path d="m2.907866 173.683015 16.20097 55.324074 56.703395-15.594473-26.516972-40.628617zm0 0"/><path d="m72.592807 104.216725-15.78556 23.893084 56.287985 2.489583-2.007813-60.510706zm0 0"/><path d="m183.887931 104.216725-38.979256-34.81959-1.315464 61.202257 56.21875-2.489583zm0 0"/><path d="m75.812231 213.412616 33.786638-16.528067-29.182517-22.786603zm0 0"/><path d="m146.916487 196.884549 33.89049 16.528067-4.707974-39.31467zm0 0"/></g><path d="m180.806977 213.412616-33.89049-16.528067 2.700162 22.129629-.311557 9.30136zm0 0" fill="#d7c1b3" stroke="#d7c1b3"/><path d="m75.812231 213.412616 31.501885 14.902922-.207704-9.30136 2.492457-22.129629zm0 0" fill="#d7c1b3" stroke="#d7c1b3"/><path d="m107.798761 159.506221-28.213228-8.298611 19.905038-9.093895zm0 0" fill="#233447" stroke="#233447"/><path d="m148.716595 159.506221 8.273572-17.392506 20.00889 9.093895zm0 0" fill="#233447" stroke="#233447"/><path d="m75.812231 213.412616 4.777209-40.628617-31.294181.899016zm0 0" fill="#cd6116" stroke="#cd6116"/><path d="m175.995151 172.783999 4.811826 40.628617 26.482355-39.729601zm0 0" fill="#cd6116" stroke="#cd6116"/><path d="m199.811961 128.109809-56.21875 2.489583 5.192619 28.906829 8.308189-17.392506 20.00889 9.093895zm0 0" fill="#cd6116" stroke="#cd6116"/><path d="m79.585533 151.20761 20.00889-9.093895 8.204338 17.392506 5.296471-28.906829-56.287985-2.489583zm0 0" fill="#cd6116" stroke="#cd6116"/><path d="m56.807247 128.109809 23.609105 45.988137-.830819-22.890336zm0 0" fill="#e4751f" stroke="#e4751f"/><path d="m177.102909 151.20761-1.003906 22.890336 23.712958-45.988137zm0 0" fill="#e4751f" stroke="#e4751f"/><path d="m113.095232 130.599392-5.296471 28.906829 6.611934 34.093461 1.488551-44.916233zm0 0" fill="#e4751f" stroke="#e4751f"/><path d="m143.593211 130.599392-2.700161 18.014902 1.211611 44.985388 6.681169-34.093461zm0 0" fill="#e4751f" stroke="#e4751f"/><path d="m148.78583 159.506221-6.681169 34.093461 4.811826 3.284867 29.182516-22.786603 1.003906-22.890336zm0 0" fill="#f6851b" stroke="#f6851b"/><path d="m79.585533 151.20761.830819 22.890336 29.182517 22.786603 4.811826-3.284867-6.611934-34.093461zm0 0" fill="#f6851b" stroke="#f6851b"/><path d="m149.305092 228.315538.311557-9.30136-2.527075-2.212963h-37.69841l-2.284752 2.212963.207704 9.30136-31.501885-14.902922 10.973733 8.990162 22.32826 15.490741h38.286907l22.397495-15.490741 11.008351-8.990162zm0 0" fill="#c0ad9e" stroke="#c0ad9e"/><path d="m146.916487 196.884549-4.811826-3.284867h-27.693966l-4.811826 3.284867-2.492457 22.129629 2.284752-2.212963h37.69841l2.527075 2.212963zm0 0" fill="#161616" stroke="#161616"/><path d="m247.307112 80.18533 8.481277-40.801505-12.704607-37.896991-96.167295 71.402634 36.971444 31.327257 52.306977 15.283275 11.596848-13.485243-4.984913-3.630642 7.996632-7.295863-6.196525-4.771701 7.996633-6.120226zm0 0" fill="#763d16" stroke="#763d16"/><path d="m.796202 39.383825 8.515894 40.801505-5.400323 4.010995 7.996632 6.120226-6.092672 4.771701 7.996632 7.295863-5.019531 3.630642 11.492996 13.485243 52.306977-15.283275 37.006062-31.327257-96.201913-71.402634zm0 0" fill="#763d16" stroke="#763d16"/><path d="m236.194908 119.5-52.306977-15.283275 15.92403 23.893084-23.712958 45.988137 31.190329-.414931h46.525862zm0 0" fill="#f6851b" stroke="#f6851b"/><path d="m72.592807 104.216725-52.306977 15.283275-17.377964 54.183015h46.387393l31.121093.414931-23.609105-45.988137zm0 0" fill="#f6851b" stroke="#f6851b"/><path d="m143.593211 130.599392 3.323276-57.709924 15.197064-41.078125h-67.504041l14.989359 41.078125 3.496363 57.709924 1.211611 18.18779.103852 44.8125h27.693966l.207704-44.8125zm0 0" fill="#f6851b" stroke="#f6851b"/></g></svg>

<?xml version="1.0" encoding="UTF-8"?>
<svg xmlns="http://www.w3.org/2000/svg" xmlns:xlink="http://www.w3.org/1999/xlink" width="29pt" height="27pt" viewBox="0 0 29 27" version="1.1">
<g id="surface1">
<path style="fill-rule:nonzero;fill:rgb(88.627451%,46.27451%,10.588235%);fill-opacity:1;stroke-width:1;stroke-linecap:round;stroke-linejoin:round;stroke:rgb(88.627451%,46.27451%,10.588235%);stroke-opacity:1;stroke-miterlimit:4;" d="M 243.083782 1.486834 L 143.593211 75.413628 L 162.009698 31.811343 Z M 243.083782 1.486834 " transform="matrix(0.11284,0,0,0.112971,0,0)"/>
<path style="fill-rule:nonzero;fill:rgb(89.411765%,46.27451%,10.588235%);fill-opacity:1;stroke-width:1;stroke-linecap:round;stroke-linejoin:round;stroke:rgb(89.411765%,46.27451%,10.588235%);stroke-opacity:1;stroke-miterlimit:4;" d="M 13.396956 1.486834 L 112.091325 76.105179 L 94.60951 31.811343 Z M 13.396956 1.486834 " transform="matrix(0.11284,0,0,0.112971,0,0)"/>
<path style="fill-rule:nonzero;fill:rgb(89.411765%,46.27451%,10.588235%);fill-opacity:1;stroke-width:1;stroke-linecap:round;stroke-linejoin:round;stroke:rgb(89.411765%,46.27451%,10.588235%);stroke-opacity:1;stroke-miterlimit:4;" d="M 207.289332 172.783999 L 180.806977 213.412616 L 237.510372 229.007089 L 253.815194 173.683015 Z M 207.289332 172.783999 " transform="matrix(0.11284,0,0,0.112971,0,0)"/>
<path style="fill-rule:nonzero;fill:rgb(89.411765%,46.27451%,10.588235%);fill-opacity:1;stroke-width:1;stroke-linecap:round;stroke-linejoin:round;stroke:rgb(89.411765%,46.27451%,10.588235%);stroke-opacity:1;stroke-miterlimit:4;" d="M 2.907866 173.683015 L 19.108836 229.007089 L 75.812231 213.412616 L 49.295259 172.783999 Z M 2.907866 173.683015 " transform="matrix(0.11284,0,0,0.112971,0,0)"/>
<path style="fill-rule:nonzero;fill:rgb(89.411765%,46.27451%,10.588235%);fill-opacity:1;stroke-width:1;stroke-linecap:round;stroke-linejoin:round;stroke:rgb(89.411765%,46.27451%,10.588235%);stroke-opacity:1;stroke-miterlimit:4;" d="M 72.592807 104.216725 L 56.807247 128.109809 L 113.095232 130.599392 L 111.087419 70.088686 Z M 72.592807 104.216725 " transform="matrix(0.11284,0,0,0.112971,0,0)"/>
<path style="fill-rule:nonzero;fill:rgb(89.411765%,46.27451%,10.588235%);fill-opacity:1;stroke-width:1;stroke-linecap:round;stroke-linejoin:round;stroke:rgb(89.411765%,46.27451%,10.588235%);stroke-opacity:1;stroke-miterlimit:4;" d="M 183.887931 104.216725 L 144.908675 69.397135 L 143.593211 130.599392 L 199.811961 128.109809 Z M 183.887931 104.216725 " transform="matrix(0.11284,0,0,0.112971,0,0)"/>
<path style="fill-rule:nonzero;fill:rgb(89.411765%,46.27451%,10.588235%);fill-opacity:1;stroke-width:1;stroke-linecap:round;stroke-linejoin:round;stroke:rgb(89.411765%,46.27451%,10.588235%);stroke-opacity:1;stroke-miterlimit:4;" d="M 75.812231 213.412616 L 109.598869 196.884549 L 80.416352 174.097946 Z M 75.812231 213.412616 " transform="matrix(0.11284,0,0,0.112971,0,0)"/>
<path style="fill-rule:nonzero;fill:rgb(89.411765%,46.27451%,10.588235%);fill-opacity:1;stroke-width:1;stroke-linecap:round;stroke-linejoin:round;stroke:rgb(89.411765%,46.27451%,10.588235%);stroke-opacity:1;stroke-miterlimit:4;" d="M 146.916487 196.884549 L 180.806977 213.412616 L 176.099003 174.097946 Z M 146.916487 196.884549 " transform="matrix(0.11284,0,0,0.112971,0,0)"/>
<path style="fill-rule:nonzero;fill:rgb(84.313725%,75.686275%,70.196078%);fill-opacity:1;stroke-width:1;stroke-linecap:round;stroke-linejoin:round;stroke:rgb(84.313725%,75.686275%,70.196078%);stroke-opacity:1;stroke-miterlimit:4;" d="M 180.806977 213.412616 L 146.916487 196.884549 L 149.616649 219.014178 L 149.305092 228.315538 Z M 180.806977 213.412616 " transform="matrix(0.11284,0,0,0.112971,0,0)"/>
<path style="fill-rule:nonzero;fill:rgb(84.313725%,75.686275%,70.196078%);fill-opacity:1;stroke-width:1;stroke-linecap:round;stroke-linejoin:round;stroke:rgb(84.313725%,75.686275%,70.196078%);stroke-opacity:1;stroke-miterlimit:4;" d="M 75.812231 213.412616 L 107.314116 228.315538 L 107.106412 219.014178 L 109.598869 196.884549 Z M 75.812231 213.412616 " transform="matrix(0.11284,0,0,0.112971,0,0)"/>
<path style="fill-rule:nonzero;fill:rgb(13.72549%,20.392157%,27.843137%);fill-opacity:1;stroke-width:1;stroke-linecap:round;stroke-linejoin:round;stroke:rgb(13.72549%,20.392157%,27.843137%);stroke-opacity:1;stroke-miterlimit:4;" d="M 107.798761 159.506221 L 79.585533 151.20761 L 99.490571 142.113715 Z M 107.798761 159.506221 " transform="matrix(0.11284,0,0,0.112971,0,0)"/>
<path style="fill-rule:nonzero;fill:rgb(13.72549%,20.392157%,27.843137%);fill-opacity:1;stroke-width:1;stroke-linecap:round;stroke-linejoin:round;stroke:rgb(13.72549%,20.392157%,27.843137%);stroke-opacity:1;stroke-miterlimit:4;" d="M 148.716595 159.506221 L 156.990167 142.113715 L 176.999057 151.20761 Z M 148.716595 159.506221 " transform="matrix(0.11284,0,0,0.112971,0,0)"/>
<path style="fill-rule:nonzero;fill:rgb(80.392157%,38.039216%,8.627451%);fill-opacity:1;stroke-width:1;stroke-linecap:round;stroke-linejoin:round;stroke:rgb(80.392157%,38.039216%,8.627451%);stroke-opacity:1;stroke-miterlimit:4;" d="M 75.812231 213.412616 L 80.58944 172.783999 L 49.295259 173.683015 Z M 75.812231 213.412616 " transform="matrix(0.11284,0,0,0.112971,0,0)"/>
<path style="fill-rule:nonzero;fill:rgb(80.392157%,38.039216%,8.627451%);fill-opacity:1;stroke-width:1;stroke-linecap:round;stroke-linejoin:round;stroke:rgb(80.392157%,38.039216%,8.627451%);stroke-opacity:1;stroke-miterlimit:4;" d="M 175.995151 172.783999 L 180.806977 213.412616 L 207.289332 173.683015 Z M 175.995151 172.783999 " transform="matrix(0.11284,0,0,0.112971,0,0)"/>
<path style="fill-rule:nonzero;fill:rgb(80.392157%,38.039216%,8.627451%);fill-opacity:1;stroke-width:1;stroke-linecap:round;stroke-linejoin:round;stroke:rgb(80.392157%,38.039216%,8.627451%);stroke-opacity:1;stroke-miterlimit:4;" d="M 199.811961 128.109809 L 143.593211 130.599392 L 148.78583 159.506221 L 157.094019 142.113715 L 177.102909 151.20761 Z M 199.811961 128.109809 " transform="matrix(0.11284,0,0,0.112971,0,0)"/>
<path style="fill-rule:nonzero;fill:rgb(80.392157%,38.039216%,8.627451%);fill-opacity:1;stroke-width:1;stroke-linecap:round;stroke-linejoin:round;stroke:rgb(80.392157%,38.039216%,8.627451%);stroke-opacity:1;stroke-miterlimit:4;" d="M 79.585533 151.20761 L 99.594423 142.113715 L 107.798761 159.506221 L 113.095232 130.599392 L 56.807247 128.109809 Z M 79.585533 151.20761 " transform="matrix(0.11284,0,0,0.112971,0,0)"/>
<path style="fill-rule:nonzero;fill:rgb(89.411765%,45.882353%,12.156863%);fill-opacity:1;stroke-width:1;stroke-linecap:round;stroke-linejoin:round;stroke:rgb(89.411765%,45.882353%,12.156863%);stroke-opacity:1;stroke-miterlimit:4;" d="M 56.807247 128.109809 L 80.416352 174.097946 L 79.585533 151.20761 Z M 56.807247 128.109809 " transform="matrix(0.11284,0,0,0.112971,0,0)"/>
<path style="fill-rule:nonzero;fill:rgb(89.411765%,45.882353%,12.156863%);fill-opacity:1;stroke-width:1;stroke-linecap:round;stroke-linejoin:round;stroke:rgb(89.411765%,45.882353%,12.156863%);stroke-opacity:1;stroke-miterlimit:4;" d="M 177.102909 151.20761 L 176.099003 174.097946 L 199.811961 128.109809 Z M 177.102909 151.20761 " transform="matrix(0.11284,0,0,0.112971,0,0)"/>
<path style="fill-rule:nonzero;fill:rgb(89.411765%,45.882353%,12.156863%);fill-opacity:1;stroke-width:1;stroke-linecap:round;stroke-linejoin:round;stroke:rgb(89.411765%,45.882353%,12.156863%);stroke-opacity:1;stroke-miterlimit:4;" d="M 113.095232 130.599392 L 107.798761 159.506221 L 114.410695 193.599682 L 115.899246 148.683449 Z M 113.095232 130.599392 " transform="matrix(0.11284,0,0,0.112971,0,0)"/>
<path style="fill-rule:nonzero;fill:rgb(89.411765%,45.882353%,12.156863%);fill-opacity:1;stroke-width:1;stroke-linecap:round;stroke-linejoin:round;stroke:rgb(89.411765%,45.882353%,12.156863%);stroke-opacity:1;stroke-miterlimit:4;" d="M 143.593211 130.599392 L 140.89305 148.614294 L 142.104661 193.599682 L 148.78583 159.506221 Z M 143.593211 130.599392 " transform="matrix(0.11284,0,0,0.112971,0,0)"/>
<path style="fill-rule:nonzero;fill:rgb(96.470588%,52.156863%,10.588235%);fill-opacity:1;stroke-width:1;stroke-linecap:round;stroke-linejoin:round;stroke:rgb(96.470588%,52.156863%,10.588235%);stroke-opacity:1;stroke-miterlimit:4;" d="M 148.78583 159.506221 L 142.104661 193.599682 L 146.916487 196.884549 L 176.099003 174.097946 L 177.102909 151.20761 Z M 148.78583 159.506221 " transform="matrix(0.11284,0,0,0.112971,0,0)"/>
<path style="fill-rule:nonzero;fill:rgb(96.470588%,52.156863%,10.588235%);fill-opacity:1;stroke-width:1;stroke-linecap:round;stroke-linejoin:round;stroke:rgb(96.470588%,52.156863%,10.588235%);stroke-opacity:1;stroke-miterlimit:4;" d="M 79.585533 151.20761 L 80.416352 174.097946 L 109.598869 196.884549 L 114.410695 193.599682 L 107.798761 159.506221 Z M 79.585533 151.20761 " transform="matrix(0.11284,0,0,0.112971,0,0)"/>
<path style="fill-rule:nonzero;fill:rgb(75.294118%,67.843137%,61.960784%);fill-opacity:1;stroke-width:1;stroke-linecap:round;stroke-linejoin:round;stroke:rgb(75.294118%,67.843137%,61.960784%);stroke-opacity:1;stroke-miterlimit:4;" d="M 149.305092 228.315538 L 149.616649 219.014178 L 147.089574 216.801215 L 109.391164 216.801215 L 107.106412 219.014178 L 107.314116 228.315538 L 75.812231 213.412616 L 86.785964 222.402778 L 109.114224 237.893519 L 147.401131 237.893519 L 169.798626 222.402778 L 180.806977 213.412616 Z M 149.305092 228.315538 " transform="matrix(0.11284,0,0,0.112971,0,0)"/>
<path style="fill-rule:nonzero;fill:rgb(8.627451%,8.627451%,8.627451%);fill-opacity:1;stroke-width:1;stroke-linecap:round;stroke-linejoin:round;stroke:rgb(8.627451%,8.627451%,8.627451%);stroke-opacity:1;stroke-miterlimit:4;" d="M 146.916487 196.884549 L 142.104661 193.599682 L 114.410695 193.599682 L 109.598869 196.884549 L 107.106412 219.014178 L 109.391164 216.801215 L 147.089574 216.801215 L 149.616649 219.014178 Z M 146.916487 196.884549 " transform="matrix(0.11284,0,0,0.112971,0,0)"/>
<path style="fill-rule:nonzero;fill:rgb(46.27451%,23.921569%,8.627451%);fill-opacity:1;stroke-width:1;stroke-linecap:round;stroke-linejoin:round;stroke:rgb(46.27451%,23.921569%,8.627451%);stroke-opacity:1;stroke-miterlimit:4;" d="M 247.307112 80.18533 L 255.788389 39.383825 L 243.083782 1.486834 L 146.916487 72.889468 L 183.887931 104.216725 L 236.194908 119.5 L 247.791756 106.014757 L 242.806843 102.384115 L 250.803475 95.088252 L 244.60695 90.316551 L 252.603583 84.196325 Z M 247.307112 80.18533 " transform="matrix(0.11284,0,0,0.112971,0,0)"/>
<path style="fill-rule:nonzero;fill:rgb(46.27451%,23.921569%,8.627451%);fill-opacity:1;stroke-width:1;stroke-linecap:round;stroke-linejoin:round;stroke:rgb(46.27451%,23.921569%,8.627451%);stroke-opacity:1;stroke-miterlimit:4;" d="M 0.796202 39.383825 L 9.312096 80.18533 L 3.911773 84.196325 L 11.908405 90.316551 L 5.815733 95.088252 L 13.812365 102.384115 L 8.792834 106.014757 L 20.28583 119.5 L 72.592807 104.216725 L 109.598869 72.889468 L 13.396956 1.486834 Z M 0.796202 39.383825 " transform="matrix(0.11284,0,0,0.112971,0,0)"/>
<path style="fill-rule:nonzero;fill:rgb(96.470588%,52.156863%,10.588235%);fill-opacity:1;stroke-width:1;stroke-linecap:round;stroke-linejoin:round;stroke:rgb(96.470588%,52.156863%,10.588235%);stroke-opacity:1;stroke-miterlimit:4;" d="M 236.194908 119.5 L 183.887931 104.216725 L 199.811961 128.109809 L 176.099003 174.097946 L 207.289332 173.683015 L 253.815194 173.683015 Z M 236.194908 119.5 " transform="matrix(0.11284,0,0,0.112971,0,0)"/>
<path style="fill-rule:nonzero;fill:rgb(96.470588%,52.156863%,10.588235%);fill-opacity:1;stroke-width:1;stroke-linecap:round;stroke-linejoin:round;stroke:rgb(96.470588%,52.156863%,10.588235%);stroke-opacity:1;stroke-miterlimit:4;" d="M 72.592807 104.216725 L 20.28583 119.5 L 2.907866 173.683015 L 49.295259 173.683015 L 80.416352 174.097946 L 56.807247 128.109809 Z M 72.592807 104.216725 " transform="matrix(0.11284,0,0,0.112971,0,0)"/>
<path style="fill-rule:nonzero;fill:rgb(96.470588%,52.156863%,10.588235%);fill-opacity:1;stroke-width:1;stroke-linecap:round;stroke-linejoin:round;stroke:rgb(96.470588%,52.156863%,10.588235%);stroke-opacity:1;stroke-miterlimit:4;" d="M 143.593211 130.599392 L 146.916487 72.889468 L 162.113551 31.811343 L 94.60951 31.811343 L 109.598869 72.889468 L 113.095232 130.599392 L 114.306843 148.787182 L 114.410695 193.599682 L 142.104661 193.599682 L 142.312365 148.787182 Z M 143.593211 130.599392 " transform="matrix(0.11284,0,0,0.112971,0,0)"/>
</g>
</svg>
